!!!COM: Palestrina, Giovanni Perluigi da
!!!OPR: Missa Lauda Sion
!!!OMD: Agnus II
!!!OTL: First Section
**kern	**kern	**kern	**kern	**kern
*Ibass	*Itenor	*Itenor	*Icalto	*Icant
!Bassus	!Tenor 2	!Tenor 1	!Altus	!Cantus
*clefF4	*clefGv2	*clefGv2	*clefG2	*clefG2
*k[]	*k[]	*k[]	*k[]	*k[]
*G:mix	*G:mix	*G:mix	*G:mix	*G:mix
*M4/2	*M4/2	*M4/2	*M4/2	*M4/2
=1	=1	=1	=1	=1
0r	1D	0r	0r	1r
.	2.G	.	.	1d
.	4F	.	.	.
=2	=2	=2	=2	=2
0r	4E	0r	1G	1g
.	4D	.	.	.
.	1E	.	.	.
.	.	.	[1c	1g
.	2C	.	.	.
=3	=3	=3	=3	=3
0r	1F	0r	2c]	1a
.	.	.	2d	.
.	2C	.	1e	1g
.	[2c	.	.	.
=4	=4	=4	=4	=4
0r	4c]	0r	2c	1.cc
.	4B	.	.	.
.	4A	.	2e	.
.	4G	.	.	.
.	2A	.	2f#	.
.	2G	.	[2g	2b
=5	=5	=5	=5	=5
1r	2.d	1D	2g]	1a
.	.	.	2f	.
.	4c	.	.	.
1GG	4B	1G	2e	2.g
.	4A	.	.	.
.	2B	.	2d	.
.	.	.	.	4f
=6	=6	=6	=6	=6
1.C	2c	1G	2.e	4e
.	.	.	.	4d
.	1e	.	.	1g
.	.	.	4d	.
.	.	1A	2c	.
2D	4d	.	2A	2f#
.	4c	.	.	.
=7	=7	=7	=7	=7
1E	4B	1G	2r	1g
.	4A	.	.	.
.	2B	.	1e	.
2C	1E	[1c	.	2r
2E	.	.	2e	2g
=8	=8	=8	=8	=8
2F#	1r	2c]	0d	2a
1G	.	2B	.	2b
.	1D	1A	.	2.dd
2F#	.	.	.	.
.	.	.	.	4cc
=9	=9	=9	=9	=9
2.G	1G	2G	2d	4b
.	.	.	.	4a
.	.	2d	2.g	1b
4F	.	.	.	.
4E	1G	2.e	.	.
4D	.	.	4f	.
2E	.	.	[2e	2g
.	.	4d	.	.
=10	=10	=10	=10	=10
2.AA	1A	4c	2e]	1.cc
.	.	4B	.	.
.	.	2A	2c	.
4BB	.	.	.	.
4C	1G	1E	[1e	.
4D	.	.	.	.
2E	.	.	.	2b
=11	=11	=11	=11	=11
2.AA	0c	2r	0e]	2a
.	.	2A	.	2.cc
4BB	.	.	.	.
1C	.	2G	.	.
.	.	.	.	4b
.	.	2E	.	[2a
=12	=12	=12	=12	=12
0D	1B	2F#	0d	2a]
.	.	2G	.	1g
.	1A	2A	.	.
.	.	2D	.	2f#
=13	=13	=13	=13	=13
[0GG	1G	2r	2.B	[0g
.	.	2G	.	.
.	.	.	4c	.
.	2r	1B	1d	.
.	2G	.	.	.
=14	=14	=14	=14	=14
1GG]	1B	2d	1G	1g_
.	.	2d	.	.
2r	2.c	1e	1r	1g_
2C	.	.	.	.
.	8B	.	.	.
.	8A	.	.	.
=15	=15	=15	=15	=15
1E	2G	1e	0r	0g]
.	2c	.	.	.
2G	2c	1d	.	.
2G	2B	.	.	.
=16	=16	=16	=16	=16
1A	4c	2c	2r	0r
.	4B	.	.	.
.	4A	2.e	2c	.
.	4B	.	.	.
1A	4c	.	1e	.
.	4d	4d	.	.
.	[2e	[2c	.	.
=17	=17	=17	=17	=17
2.G	4e]	4c]	1g	2r
.	8d	4B	.	.
.	8c	.	.	.
.	2d	1B	.	2g
4F	.	.	.	.
1E	1G	.	2g	1b
.	.	4A	[2g	.
.	.	4G	.	.
=18	=18	=18	=18	=18
2D	0r	1A	2g]	2dd
2D	.	.	2f#	2dd
2C	.	2c	1g	2ee
2BB	.	2d	.	[2dd
=19	=19	=19	=19	=19
1C	1r	1e	2g	4dd]
.	.	.	.	4cc
.	.	.	4G	2cc
.	.	.	4A	.
[1GG	2r	[1d	4B	4b
.	.	.	4c	4a
.	2G	.	2d	4b
.	.	.	.	4cc
=20	=20	=20	=20	=20
1GG]	1B	1d]	2G	4dd
.	.	.	.	4cc
.	.	.	1g	2b
1r	2d	1r	.	1a
.	2d	.	2f#	.
=21	=21	=21	=21	=21
1C	1e	0r	2g	1g
.	.	.	1G	.
1E	1e	.	.	2r
.	.	.	[2B	2g
=22	=22	=22	=22	=22
1G	0d	2r	2B]	1b
.	.	2G	1d	.
2G	.	1B	.	2dd
[2G	.	.	2G	2dd
=23	=23	=23	=23	=23
2G]	0G	2d	2g	2b
2G	.	2d	2g	2b
1C	.	2e	1g	1cc
.	.	2e	.	.
*-	*-	*-	*-	*-
!!!CDT: 1525/^1526/-1594/2/2
!!!OCY: Italia
!!!AGN: Mass (Parody)
!!!AST: renaissance, vocal
!!!ASW: Motet 1563 (Palestrina)
!!!PWK: Masses, Book 4
!!!RNB: Cadence finals: D
!!!YOR: Le Opere Complete, v. 10, p. 1
!!!YOO: Rome, Italy: Fratelli Scalera
!!!END: 1992//
!!!EED: John Miller
!!!YEC: Copyright 2000, John Miller
!!!YEN: United States of America
!!!YEM: Rights to all derivative electronic formats reserved.
!!!YEM: Refer to licensing agreement for further details.
!!!YEM: This file must be accompanied by the licensing agreement.
!!!YEM: A copy of the licensing agreement may be found at http://www.music-cog.ohio-state.edu/HumdrumDatabases/Palestrina/license.txt
!!!EMD: converted to Humdrum by Bret Aarden
